MonoIcons/scalable/status/media-playlist-shuffle-symbolic.svg

<?xml version="1.0" encoding="UTF-8"?>
<svg height="16px" viewBox="0 0 16 16" width="16px" xmlns="http://www.w3.org/2000/svg">
    <path d="m 12 1 v 2 h -3 c -0.859375 0 -1.59375 0.480469 -2.011719 1.007812 c -0.417969 0.523438 -0.648437 1.074219 -0.882812 1.542969 l -0.105469 0.210938 l -0.105469 -0.210938 c -0.191406 -0.382812 -0.386719 -0.816406 -0.671875 -1.25 c -0.414062 -0.632812 -1.207031 -1.300781 -2.222656 -1.300781 h -3 v 2 h 3 c 0.296875 0 0.316406 0.039062 0.550781 0.398438 c 0.164063 0.246093 0.34375 0.625 0.554688 1.050781 l 0.777343 1.550781 l -0.777343 1.550781 c -0.261719 0.523438 -0.476563 0.96875 -0.65625 1.199219 c -0.183594 0.226562 -0.199219 0.25 -0.449219 0.25 h -3 v 2 h 3 c 0.859375 0 1.59375 -0.480469 2.011719 -1.007812 c 0.417969 -0.523438 0.648437 -1.074219 0.882812 -1.542969 l 0.105469 -0.210938 l 0.105469 0.210938 c 0.164062 0.328125 0.335937 0.703125 0.5625 1.078125 c 0.414062 0.6875 1.222656 1.472656 2.332031 1.472656 h 3 v 2 h 1 v -0.007812 c 0.265625 0.003906 0.519531 -0.101563 0.707031 -0.285157 l 2 -2 c 0.390625 -0.390625 0.390625 -1.023437 0 -1.414062 l -2 -2 c -0.1875 -0.183594 -0.441406 -0.289063 -0.707031 -0.285157 v -0.007812 h -1 v 2 h -3 c -0.324219 0 -0.351562 -0.058594 -0.617188 -0.503906 c -0.148437 -0.242188 -0.304687 -0.574219 -0.488281 -0.945313 l -0.777343 -1.550781 l 0.777343 -1.550781 c 0.261719 -0.523438 0.476563 -0.96875 0.65625 -1.199219 c 0.183594 -0.226562 0.199219 -0.25 0.449219 -0.25 h 3 v 2 h 1 v -0.007812 c 0.265625 0.003906 0.519531 -0.101563 0.707031 -0.285157 l 2 -2 c 0.390625 -0.390625 0.390625 -1.023437 0 -1.414062 l -2 -2 c -0.1875 -0.183594 -0.441406 -0.289063 -0.707031 -0.285157 v -0.007812 z m 0 0" fill="#2e3436"/>
</svg>

<svg width="16" height="16" viewBox="0 0 16 16" fill="none" xmlns="http://www.w3.org/2000/svg">
<g clip-path="url(#clip0_231_1044)">
<path d="M12 1V3H9C8.14062 3 7.40625 3.48047 6.98828 4.00781C6.57031 4.53125 6.33984 5.08203 6.10547 5.55078L6 5.76172L5.89453 5.55078C5.70312 5.16797 5.50781 4.73437 5.22266 4.30078C4.80859 3.66797 4.01562 3 3 3H0V5H3C3.29687 5 3.31641 5.03906 3.55078 5.39844C3.71484 5.64453 3.89453 6.02344 4.10547 6.44922L4.88281 8L4.10547 9.55078C3.84375 10.0742 3.62891 10.5195 3.44922 10.75C3.26562 10.9766 3.25 11 3 11H0V13H3C3.85937 13 4.59375 12.5195 5.01172 11.9922C5.42969 11.4688 5.66016 10.918 5.89453 10.4492L6 10.2383L6.10547 10.4492C6.26953 10.7773 6.44141 11.1523 6.66797 11.5273C7.08203 12.2148 7.89062 13 9 13H12V15H13V14.9922C13.2656 14.9961 13.5195 14.8906 13.707 14.707L15.707 12.707C16.0977 12.3164 16.0977 11.6836 15.707 11.293L13.707 9.29297C13.5195 9.10937 13.2656 9.00391 13 9.00781V9H12V11H9C8.67578 11 8.64844 10.9414 8.38281 10.4961C8.23437 10.2539 8.07812 9.92188 7.89453 9.55078L7.11719 8L7.89453 6.44922C8.15625 5.92578 8.37109 5.48047 8.55078 5.25C8.73437 5.02344 8.75 5 9 5H12V7H13V6.99219C13.2656 6.99609 13.5195 6.89062 13.707 6.70703L15.707 4.70703C16.0977 4.31641 16.0977 3.68359 15.707 3.29297L13.707 1.29297C13.5195 1.10937 13.2656 1.00391 13 1.00781V1H12Z" fill="#2E3436"/>
</g>
<defs>
<clipPath id="clip0_231_1044">
<rect width="16" height="16" fill="white"/>
</clipPath>
</defs>
</svg>
